X: 2
T: Pant Corlan yr Wyn  [A]
T: The Lambs' Fold Vale
T: Let Now the Harp
C:Trad
O:Wales
N:This version has a 12-bar 2nd part
R:Hornpipe
M:2/2
L:1/8
S:handwritten MS of unknown origin
Z:2009 John Chambers <jc:trillian.mit.edu>
K:A
V:1
cB \
| "A"A2AB c2A2 | "E7"d2Bc d2B2 \
| "A"c2A2 A2c2 | "E7"e2B2 G2E2 \
"I"\
| "A"A2AB c2A2 | "D"d2dc "Bm"B2d2 \
| "A"c2A2 "E7"GABG | "A"A2A2 A2 :|
|: ed \
| "A"c2e2 e2dc | "E7"B2d2 d2cB \
| "F#m"A2c2 "B7"c2BA | "E"G2B2 "E7"G2E2 \
| "A"A2AB c2A2 | "E7"d2Bc d2B2 |
| "A"c2A2 A2c2 | "E7"e2B2 G2E2 \
| "A"A2AB c2A2 | "D"d2dc "Bm"B2d2 \
| "A"c2A2 "E7"GABG | "A"A2A2 A2 :|
V:2
ED \
| C2CD E2C2 | E2DE F2D2 \
| E2C2 C2E2 | G2E2 D2B,2 \
| C2CD E2C2 | F2FE D2F2 \
| E2C2 B,CDB, | C2C2 C2 :|
|: z2 \
| A,4 C4 | E4 B,4 \
| F4 ^D4 | E4 D4 \
| E2DE F2D2  | E2DE F2D2 |
| E2C2 C2E2 | G2E2 D2B,2 \
| C2CD E2C2 | F2FE D2F2 \
| E2C2 B,CDB, | C2C2 C2 :|

